proprietary/assets/icons/gebouwen/stacaravan.svg

<svg height="64" viewBox="0 0 64 64" width="64" xmlns="http://www.w3.org/2000/svg"><path d="m0 0h64v64h-64z" fill="none"/><path d="m52 22h-38l4.8404 3.8723c.5432.4445.1596 1.1277.1596 1.1277l-9.0076-4.9957-8.9924 5.0549v19.9408h2v3h40v-18h7v18h11v-3h2v-19.9408zm-35 16h-13v-6h13zm23 5h-14v-11h14zm17-5h-4v-6h4z"/></svg>

<?xml version="1.0" encoding="utf-8"?>
<!-- Generator: Adobe Illustrator 19.1.0, SVG Export Plug-In . SVG Version: 6.00 Build 0)  -->
<svg version="1.2" baseProfile="tiny" xmlns="http://www.w3.org/2000/svg" xmlns:xlink="http://www.w3.org/1999/xlink" x="0px"
	 y="0px" width="64px" height="64px" viewBox="0 0 64 64" xml:space="preserve">
<g id="_x36_4px_Box">
	<rect fill="none" width="64" height="64"/>
</g>
<g id="Icon">
	<path d="M52,22H14l4.8404,3.8723C19.3836,26.3168,19,27,19,27l-9.0076-4.9957L1,27.0592V47c0.4916,0-0.4615,0,2,0v3h40V32h7v18h11
		v-3c0.6637,0,1.3215,0,2,0V27.0592L52,22z M17,38H4v-6h13V38z M40,43H26V32h14V43z M57,38h-4v-6h4V38z"/>
</g>
</svg>
